build/svg/cmd/sc_pasteonlyformula.svg

<?xml version="1.0" encoding="UTF-8" standalone="no"?>
<svg
   xmlns:dc="http://purl.org/dc/elements/1.1/"
   xmlns:cc="http://creativecommons.org/ns#"
   xmlns:rdf="http://www.w3.org/1999/02/22-rdf-syntax-ns#"
   xmlns:svg="http://www.w3.org/2000/svg"
   xmlns="http://www.w3.org/2000/svg"
   xmlns:sodipodi="http://sodipodi.sourceforge.net/DTD/sodipodi-0.dtd"
   xmlns:inkscape="http://www.inkscape.org/namespaces/inkscape"
   viewBox="0 0 16 16"
   version="1.1"
   id="svg8"
   sodipodi:docname="sc_pasteonlyformula.svg"
   inkscape:version="0.92.4 (5da689c313, 2019-01-14)"
   inkscape:export-filename="/home/jupiter007/Libreoffice yaru theme fullcolor/build/cmd/sc_pasteonlyformula.png"
   inkscape:export-xdpi="95"
   inkscape:export-ydpi="95">
  <metadata
     id="metadata14">
    <rdf:RDF>
      <cc:Work
         rdf:about="">
        <dc:format>image/svg+xml</dc:format>
        <dc:type
           rdf:resource="http://purl.org/dc/dcmitype/StillImage" />
      </cc:Work>
    </rdf:RDF>
  </metadata>
  <defs
     id="defs12" />
  <sodipodi:namedview
     pagecolor="#ffffff"
     bordercolor="#666666"
     borderopacity="1"
     objecttolerance="10"
     gridtolerance="10"
     guidetolerance="10"
     inkscape:pageopacity="0"
     inkscape:pageshadow="2"
     inkscape:window-width="1920"
     inkscape:window-height="1011"
     id="namedview10"
     showgrid="false"
     inkscape:zoom="29.5"
     inkscape:cx="3.2875364"
     inkscape:cy="9.3496735"
     inkscape:window-x="1920"
     inkscape:window-y="32"
     inkscape:window-maximized="1"
     inkscape:current-layer="svg8" />
  <path
     inkscape:connector-curvature="0"
     style="opacity:0.6;vector-effect:none;fill:#000000;fill-opacity:1;stroke:none;stroke-width:2;stroke-linecap:round;stroke-linejoin:round;stroke-miterlimit:4;stroke-dasharray:none;stroke-dashoffset:0;stroke-opacity:1"
     d="m 7,2.0000003 c -0.554,0 -1,0.446 -1,1 H 5 c -1.108,0 -2,0.8920005 -2,2.0000005 V 12 c 0,1.108 0.892,2 2,2 h 2 4 c 1.106228,0 2,-0.889291 2,-2 v -5.0000002 -2 C 13,3.8920008 12.108,3.0000003 11,3.0000003 H 10 C 10,2.4460002 9.5540002,2.0000002 9.0000002,2.0000002 Z"
     id="rect9566"
     sodipodi:nodetypes="scssssccccsscss" />
  <rect
     style="opacity:1;vector-effect:none;fill:#cccccc;fill-opacity:1;stroke:none;stroke-width:2;stroke-linecap:round;stroke-linejoin:round;stroke-miterlimit:4;stroke-dasharray:none;stroke-dashoffset:0;stroke-opacity:1"
     id="rect873-1"
     width="8"
     height="9"
     x="4"
     y="4.0000005"
     ry="1"
     rx="1" />
  <rect
     style="opacity:1;vector-effect:none;fill:#cccccc;fill-opacity:1;stroke:none;stroke-width:2;stroke-linecap:round;stroke-linejoin:round;stroke-miterlimit:4;stroke-dasharray:none;stroke-dashoffset:0;stroke-opacity:1"
     id="rect9574"
     width="2"
     height="2"
     x="7"
     y="3.0000002" />
  <rect
     style="opacity:1;vector-effect:none;fill:#ffffff;fill-opacity:1;stroke:none;stroke-width:2;stroke-linecap:round;stroke-linejoin:round;stroke-miterlimit:4;stroke-dasharray:none;stroke-dashoffset:0;stroke-opacity:1"
     id="rect9578"
     width="2"
     height="1"
     x="7"
     y="3.0000002" />
  <g
     fill="#232629"
     id="g6">
    <path
       d="m9 5c-1.10457 0-2 .89543-2 2h-1v1h1v4h1v-4h1v-1h-1c0-.55228.44772-1 1-1h1v-1z"
       id="path4" />
  </g>
</svg>

<svg xmlns="http://www.w3.org/2000/svg" viewBox="0 0 16 16"><path d="M7 2c-.554 0-1 .446-1 1H5c-1.108 0-2 .892-2 2v7c0 1.108.892 2 2 2h6c1.106 0 2-.89 2-2V5c0-1.108-.892-2-2-2h-1c0-.554-.446-1-1-1z" opacity=".6"/><rect width="8" height="9" x="4" y="4" ry="1" rx="1" fill="#ccc"/><path fill="#ccc" d="M7 3h2v2H7z"/><path fill="#fff" d="M7 3h2v1H7z"/><path d="M9 5a2 2 0 00-2 2H6v1h1v4h1V8h1V7H8a1 1 0 011-1h1V5z" fill="#232629"/></svg>
